X: 1
T: Last Day Of January, The
Z: didier
S: https://thesession.org/tunes/15151#setting28089
R: jig
M: 6/8
L: 1/8
K: Ddor
A,DE F2G | Adc AGE | CEG c3 | GEC EFG |
A,DE F2G | Adc AGE | cBc dcA |1 GEC D2C :|2GEC D2A,||
DFA d2e | fed cGF | EFG c3 | GEC EFG |
DFA d2e | fed cGF | cBc dcA |1 GEC D2C :|2GEC D2A, ||
